dist/svg/map-marker.svg

<!-- Generated by Trend Micro Style Portal -->
<svg version="1.1" xmlns="http://www.w3.org/2000/svg" width="16" height="16" viewBox="0 0 16 16">
  <title>map-marker</title>
  <path fill="rgb(34,34,34)" d="M14 6c0-0.001 0-0.003 0-0.004 0-3.314-2.686-6-6-6s-6 2.686-6 6c0 1.404 0.482 2.695 1.29 3.717l-0.010-0.013 4.72 6.3 4.72-6.3c0.797-1.008 1.279-2.298 1.28-3.7v-0zM8 3c1.657 0 3 1.343 3 3s-1.343 3-3 3c-1.657 0-3-1.343-3-3v0c0-1.657 1.343-3 3-3v0z"></path>
</svg>

<svg width="16" height="16" viewBox="0 0 16 16" fill="rgb(34, 34, 34)" xmlns="http://www.w3.org/2000/svg"><title>map-marker</title><path d="M14 6C14 5.999 14 5.997 14 5.996C14 2.682 11.314 -0.0039978 8 -0.0039978C4.686 -0.0039978 2 2.682 2 5.996C2 7.4 2.482 8.691 3.29 9.713L3.28 9.7L8 16L12.72 9.7C13.517 8.692 13.999 7.402 14 6ZM8 3C9.657 3 11 4.343 11 6C11 7.657 9.657 9 8 9C6.343 9 5 7.657 5 6C5 4.343 6.343 3 8 3Z" fill="rgb(34, 34, 34)" fill-opacity="1.00"/></svg>
